X: 102
T: Cantantibus organis – Adagio
C: Franciszek Walczyński
%%abc-version 2.0
%%abcx-abcm2ps-target-version 5.9.1 (29 Sep 2008)
%%abc-creator hum2abc beta
%%abcx-conversion-date 2021/10/04 07:38:40
%%abc-edited-by Kamil Watkowski
%%abcx-initial-encoding-date 2021-08-09
%%humdrum-veritas 2682989479
%%humdrum-veritas-data 27840656
%%linebreak <none>
%%barnumbers 0
L: 1/8
M: 6/8
N: Derived from pl-kozmzk--mzk-m-346--003_walczynski-franciszek--cantantibus-organis-adagio.krn
%%staves {1 2}
V: 1 clef=treble
V: 2 clef=bass
K: C
[V:1] cAEF2E & C6 | 
[V:2] E,3A,3 & A,,6 | 
[V:1] E>FE/D/C3 & B,3A,3 | 
[V:2] E,3-E,3 & ^G,,3A,,3 | 
[V:1] AFD EFE & C6- | 
[V:2] F,2>G,2A,G, & F,,A,,_A,,G,,3- | 
[V:1] D3C2D & CA,B,G,2z | 
[V:2] F,3E,2z & G,,3C,2z | 
[V:1] E{/G}FE BcB & z6 | 
[V:2] z2E, ^G,A,C & z6 | 
[V:1] ^G2>A2Bc & z6 | 
[V:2] EFE/D/ CB,A, & z6 | 
[V:1] B2>e2dc & ^G2>A2GA | 
[V:2] E6 & E,F,E,/D,/ C,B,,A,, | 
[V:1] d2e f>AB/c/ & A3-A2z | 
[V:2] F2GF2z & D,2^C,D,2z | 
[V:1] ^D2D!accent!E3- & z2z CB,A, | 
[V:2] z2z A,^G,^F, & z2zE,3- | 
[V:1] E6 & B,CDC3 | 
[V:2] ^G,A,B,A,3 & E,3A,,>A,,B,,/C,/ | 
[V:1] z2zz2[DE-B] | 
[V:2] z2zz2^G, & !accent!^D,,2D,,E,,2E, | 
[V:1] !accent![C3E3A3]A3- & x2>^C2DE- | 
[V:2] A,3=G,3 & A,,3A,,3- | 
[V:1] A3d2F & E2DD3 | 
[V:2] ^F,3=F,2^G, & A,,6- | 
[V:1] !fermata!E6 & ^C6 |]  
[V:2] A,6 & !fermata!A,,6 |]  


